src/assets/svg/light.svg

<svg width="32" height="32" viewBox="0 0 32 32" fill="none" xmlns="http://www.w3.org/2000/svg">
<path fill-rule="evenodd" clip-rule="evenodd" d="M16.0004 20.3875C18.4233 20.3875 20.3875 18.4233 20.3875 16.0004C20.3875 13.5775 18.4233 11.6133 16.0004 11.6133C13.5775 11.6133 11.6133 13.5775 11.6133 16.0004C11.6133 18.4233 13.5775 20.3875 16.0004 20.3875ZM16.0004 21.4198C18.9934 21.4198 21.4198 18.9934 21.4198 16.0004C21.4198 13.0074 18.9934 10.5811 16.0004 10.5811C13.0074 10.5811 10.5811 13.0074 10.5811 16.0004C10.5811 18.9934 13.0074 21.4198 16.0004 21.4198Z" fill="#101010"/>
<path fill-rule="evenodd" clip-rule="evenodd" d="M16.516 -4.51214e-08L16.516 8L15.4838 8L15.4838 0L16.516 -4.51214e-08Z" fill="#101010"/>
<path fill-rule="evenodd" clip-rule="evenodd" d="M16.516 24L16.516 32L15.4838 32L15.4838 24L16.516 24Z" fill="#101010"/>
<path fill-rule="evenodd" clip-rule="evenodd" d="M22.9249 21.935L28.5817 27.5919L27.8518 28.3218L22.195 22.6649L22.9249 21.935Z" fill="#101010"/>
<path fill-rule="evenodd" clip-rule="evenodd" d="M4.08466 3.35517L9.74151 9.01203L9.0116 9.74194L3.35474 4.08509L4.08466 3.35517Z" fill="#101010"/>
<path fill-rule="evenodd" clip-rule="evenodd" d="M22.0646 8.88177L27.7215 3.22492L28.4514 3.95483L22.7946 9.61169L22.0646 8.88177Z" fill="#101010"/>
<path fill-rule="evenodd" clip-rule="evenodd" d="M3.48359 27.7209L9.14044 22.064L9.87036 22.7939L4.21351 28.4508L3.48359 27.7209Z" fill="#101010"/>
<path fill-rule="evenodd" clip-rule="evenodd" d="M32 16.6458H24V15.6135L32 15.6135V16.6458Z" fill="#101010"/>
<path fill-rule="evenodd" clip-rule="evenodd" d="M8 16.6458H0L0 15.6135L8 15.6135V16.6458Z" fill="#101010"/>
</svg>

<svg xmlns="http://www.w3.org/2000/svg" fill="none" viewBox="0 0 32 32">
  <path fill="currentColor" fill-rule="evenodd" d="M16 20.387a4.387 4.387 0 1 0 0-8.774 4.387 4.387 0 0 0 0 8.774Zm0 1.033a5.42 5.42 0 1 0 0-10.84 5.42 5.42 0 0 0 0 10.84ZM16.516 0v8h-1.032V0h1.032ZM16.516 24v8h-1.032v-8h1.032ZM22.925 21.935l5.657 5.657-.73.73-5.657-5.657.73-.73ZM4.085 3.355l5.657 5.657-.73.73-5.657-5.657.73-.73ZM22.065 8.882l5.656-5.657.73.73-5.656 5.657-.73-.73ZM3.484 27.72l5.656-5.656.73.73-5.656 5.657-.73-.73ZM32 16.646h-8v-1.033h8v1.033ZM8 16.646H0v-1.033h8v1.033Z" clip-rule="evenodd"/>
</svg>
